!!!COM: Stravinsky, Igor (Fyodorovich)
!!!OTL: Jeu de cartes (Card Game), Ballet in Three Deals for Orchestra
!!!OMV: III: Troisième donne (Third Deal)
!!!example: 387
!!!work: Str-35
**kern	**dynam	**kern	**dynam	**kern	**dynam	**kern	**dynam	**kern	**dynam	**kern	**dynam	**kern	**dynam	**kern	**dynam	**kern	**dynam	**kern	**dynam
*part10	*part10	*part9	*part9	*part8	*part8	*part7	*part7	*part6	*part6	*part5	*part5	*part4	*part4	*part3	*part3	*part2	*part2	*part1	*part1
*staff10	*	*staff9	*	*staff8	*	*staff7	*	*staff6	*	*staff5	*	*staff4	*	*staff3	*	*staff2	*	*staff1	*
*I"Contrabass	*	*I"Violoncello	*	*I"Viola	*	*I"Violin II	*	*I"Violin I	*	*I"Timpani	*	*I"Trombone	*	*I"Trombone	*	*I"Trumpet in Bb	*	*I"Trumpet in Bb	*
*I'Cb.	*	*I'Vc.	*	*I'Vla.	*	*I'Vln. II	*	*I'Vln. I	*	*I'Timp.	*	*I'Tbn.	*	*I'Tbn.	*	*I'Tpt.	*	*I'Tpt.	*
*clefF4	*	*clefC4	*	*clefC3	*	*clefG2	*	*clefG2	*	*clefF4	*	*clefC4	*	*clefC4	*	*clefG2	*	*clefG2	*
*k[b-e-a-]	*	*k[b-e-a-]	*	*k[b-e-a-]	*	*k[b-e-a-]	*	*k[b-e-a-]	*	*	*	*k[b-e-a-]	*	*k[b-e-a-]	*	*k[b-e-a-]	*	*k[b-e-a-]	*
*E-:	*	*E-:	*	*E-:	*	*E-:	*	*E-:	*	*	*	*E-:	*	*E-:	*	*E-:	*	*E-:	*
*M3/4	*	*M3/4	*	*M3/4	*	*M3/4	*	*M3/4	*	*M3/4	*	*M3/4	*	*M3/4	*	*M3/4	*	*M3/4	*
=121	=	=	=	=	=	=	=	=	=	=	=	=	=	=	=	=	=	=	=
!LO:TX:t=pizz.	!	!	!	!	!	!	!	!	!	!	!	!	!	!	!	!	!	!	!
4E-	.	8r	.	8r	.	8r	.	8r	.	4E-X	sf	2.r	.	2.r	.	2.r	.	2.r	.
.	.	8Bn'^	sf	8f'^ 8a-	sf	8f'^ 8a-	sf	8dd-X'^	sf	.	.	.	.	.	.	.	.	.	.
4r	.	(8c'L	.	[8f'L [8a-	.	[8f'L [8a-	.	[8dd-'L	.	4r	.	.	.	.	.	.	.	.	.
.	.	8d-X'J)	.	8f'J] 8a-]	.	8f'J] 8a-]	.	8dd-'J]	.	.	.	.	.	.	.	.	.	.	.
8BB-	sf	8dn'L	.	8f'L 8a-	.	8f'L 8a-	.	8dd-'L	.	8BB-X'	.	.	.	.	.	.	.	.	.
8r	.	8en'J	.	8f'J 8a-	.	8f'J 8a-	.	8cc'J	.	8r	.	.	.	.	.	.	.	.	.
=122	=122	=122	=122	=122	=122	=122	=122	=122	=122	=122	=122	=122	=122	=122	=122	=122	=122	=122	=122
4GG	.	8e-X'L	.	8f'L 8a-	.	8f'L 8a-	.	8cc-X'L	.	4GG'	.	4r	.	4r	.	4r	.	4r	.
.	.	8c-X'J	.	8f'J 8a-	.	8f'J 8a-	.	8b-'J	.	.	.	.	.	.	.	.	.	.	.
8r	.	4r	.	4r	.	4r	.	4r	.	8r	.	8r	.	8r	.	8r	.	8r	.
8BB-	.	.	.	.	.	.	.	.	.	8BB-X'	.	8d'^	sf	8f'^	sf	8a-X'^	sf	8an'^	sf
4r	.	4r	.	4r	.	4r	.	4r	.	4r	.	8d-X'L	.	8f'L	.	8a-'L	.	8b-'L	.
.	.	.	.	.	.	.	.	.	.	.	.	8c'J	.	8f'J	.	8a-'J	.	8bn'J	.
=123	=123	=123	=123	=123	=123	=123	=123	=123	=123	=123	=123	=123	=123	=123	=123	=123	=123	=123	=123
4E-	.	8r	.	8r	.	8r	.	8r	.	4E-X	.	4r	.	4r	.	4r	.	4r	.
.	.	8d-X^	.	8f^ 8a-	.	8f^ 8a-	.	8b-^	.	.	.	.	.	.	.	.	.	.	.
4r	.	(8c'L	.	(8f'L 8a-	.	(8f'L 8a-	.	(8bn'L	.	4r	.	4r	.	4r	.	4r	.	4r	.
.	.	8c-X'J)	.	8f'J) 8a-	.	8f'J) 8a-	.	8cc'J)	.	.	.	.	.	.	.	.	.	.	.
8BB-	.	4r	.	4r	.	4r	.	4r	.	8BB-X	.	8r	.	8r	.	8r	.	8r	.
8r	.	.	.	.	.	.	.	.	.	8r	.	8c-X'	.	8f'	.	8a-'	.	8dd-X'	.
=124	=124	=124	=124	=124	=124	=124	=124	=124	=124	=124	=124	=124	=124	=124	=124	=124	=124	=124	=124
!!pagebreak:original
4GG	.	8r	.	8r	.	8r	.	8r	.	4GG	.	2.r	.	2.r	.	2.r	.	2.r	.
.	.	8d-X^	.	8f^ 8a-	.	8f^ 8a-	.	8dd-X^	.	.	.	.	.	.	.	.	.	.	.
8r	.	(8c'L	.	(8f'L 8a-	.	(8f'L 8a-	.	(8dd-'L	.	8r	.	.	.	.	.	.	.	.	.
8BB-	.	8c-X'J)	.	8f'J) 8a-	.	8f'J) 8a-	.	8dd-'J)	.	8BB-X	.	.	.	.	.	.	.	.	.
4r	.	8dn'L	.	8f'L 8a-	.	8f'L 8a-	.	8dd-'L	.	4r	.	.	.	.	.	.	.	.	.
.	.	8e-'J	.	8f'J 8a-	.	8f'J 8a-	.	8cc'J	.	.	.	.	.	.	.	.	.	.	.
=125	=125	=125	=125	=125	=125	=125	=125	=125	=125	=125	=125	=125	=125	=125	=125	=125	=125	=125	=125
4E-	.	8e-'L	.	8f'L 8a-	.	8f'L 8a-	.	8cc-X'L	.	4E-X	.	4r	.	4r	.	4r	.	4r	.
.	.	8c-X'J	.	8f'J 8a-	.	8f'J 8a-	.	8b-'J	.	.	.	.	.	.	.	.	.	.	.
4r	.	4r	.	4r	.	4r	.	4r	.	4r	.	8r	.	8r	.	8r	.	8r	.
.	.	.	.	.	.	.	.	.	.	.	.	8c-X^	.	8f^	.	8a-^	.	8dd-X^	.
8BB-	.	4r	.	4r	.	4r	.	4r	.	8BB-X	.	8cnL	.	8fL	.	8a-L	.	8dd-L	.
8r	.	.	.	.	.	.	.	.	.	8r	.	8d-XJ	.	8fJ	.	8a-J	.	8dd-J	.
=126	=126	=126	=126	=126	=126	=126	=126	=126	=126	=126	=126	=126	=126	=126	=126	=126	=126	=126	=126
4GG	.	2.r	.	4r	.	4r	.	4r	.	4GG	.	8cL	.	8fL	.	8a-L	.	8dd-XL	.
.	.	.	.	.	.	.	.	.	.	.	.	8d-XJ	.	8fJ	.	8a-J	.	8ccJ	.
8r	.	.	.	4r	.	4r	.	4r	.	8r	.	8dnL	.	8fL	.	8a-L	.	8cc-XL	.
8BB-	.	.	.	.	.	.	.	.	.	8BB-X	.	8e-J	.	8fJ	.	8a-J	.	8b-J	.
4r	.	.	.	8r	.	8r	.	8r	.	4r	.	4r	.	4r	.	4r	.	4r	.
.	.	.	.	8d-X'^ 8f 8dd-X	sf	8f'^ 8a- 8dd-X	sf	8f'^ 8a- 8dd-X	sf	.	.	.	.	.	.	.	.	.	.
=127	=127	=127	=127	=127	=127	=127	=127	=127	=127	=127	=127	=127	=127	=127	=127	=127	=127	=127	=127
4E-	.	4r	.	8r	.	8r	.	8r	.	4E-X	.	2.r	.	2.r	.	2.r	.	2.r	.
.	.	.	.	8dn'^ 8f#X 8ddn	.	8f#X'^ 8an 8ddn	.	8dn'^ 8f#X 8an	.	.	.	.	.	.	.	.	.	.	.
4r	.	8r	.	8r	.	8r	.	8r	.	4r	.	.	.	.	.	.	.	.	.
.	.	8Bn^	.	8g^ 8bn	.	8g^ 8bn	.	8dd^	.	.	.	.	.	.	.	.	.	.	.
8BB-X	.	(8c#X'L	.	(8g'L 8b	.	(8g'L 8b	.	(8dd'L	.	8BB-X	.	.	.	.	.	.	.	.	.
8r	.	8d'J)	.	8g'J) 8b	.	8g'J) 8b	.	8cc#X'J)	.	8r	.	.	.	.	.	.	.	.	.
==	==	==	==	==	==	==	==	==	==	==	==	==	==	==	==	==	==	==	==
*-	*-	*-	*-	*-	*-	*-	*-	*-	*-	*-	*-	*-	*-	*-	*-	*-	*-	*-	*-
!!!CDT: 1882/06/17-1971/04/06
!!!CBL: Lomonosov (Oranienbaum), Russia
!!!CDL: New York, United States
!!!CNT: Russian, French, American
!!!AGN: Stage; Ballet
!!!MCN: Stravinsky, Igor
!!!MDT: 1937/04/27
!!!MGN: American Ballet
!!!MLC: New York, New York, United States of America
!!!MPD: 1937
!!!MPN:
!!!ODT: 1936
!!!PDT: 1937
!!!excerpt-start-measure: 121
!!!excerpt-end-measure: 127
!!!excerpt-start-time: 2:14
!!!excerpt-end-time: 2:21
!!!EEV: 2020/01/17
!!!system-decoration: [(s1,s2,s3,s4)][(s5)][(s6,s7,s8,s9,s10)]
!!!ONB: Converted from MusicXML on 2020/01/17
